X:1
T:Title
%%score { ( 1 4 ) | ( 2 3 ) }
L:1/8
Q:1/4=100
M:6/8
K:Ab
V:1 treble nm="Grand Piano"
V:4 treble 
V:2 bass 
V:3 bass 
V:1
 [CE][CF][CG] [CA]2 [DB] | [Ec]3 [CE]3 | [CF][CG][CA] [CF]2 [CA] | G6 | EGA B2 c | d3 B3 | %6
w: Charles~H.~Gabriel * * * *||||||
 GEF GAB | c6 | [CE][CF][CG] [CA][DB][=D_c] | [Ec]3 [Ec]3 | cFG =ABc | [Fd]3 [Fd]3 | dGA Bc[Ed] | %13
w: |||||||
 e3 z3 | cdc B2 E | [CA]6 | A3 d3 | z CC [Ec]3 | [=Dc][DB][DA] [DB]2 [Dc] | [EB]2 [Ge] e2- [Ge] | %20
w: |||||||
 e3 c3 | A3 z3 | cdc B2 E | [CA]6 |] %24
w: ||||
V:2
 [A,,A,][A,,A,][A,,A,] [A,,E,]2 [A,,E,] | [A,,A,]3 [A,,A,]3 | %2
 [A,,A,][A,,A,][A,,A,] [A,,A,]2 [A,,A,] | [E,B,D]6 | [E,G,][E,B,E][E,CE] [E,G,E]2 [E,A,E] | %5
 [E,B,E]3 [E,G,E]3 | [E,B,E][E,G,][E,A,=D] [B,_D][A,C][E,G,E] | [A,E]6 | %8
 [A,,A,][A,,A,][A,,A,] [A,,A,][A,,A,][A,,A,] | [A,,A,]3 [A,,A,]3 | %10
 [F,=A,E][F,A,E][F,A,E] [F,CE][F,CE][F,CE] | [B,,B,]3 [B,,B,]3 | %12
 [E,B,E][E,B,E][E,CE] [E,G,E][E,A,E][D,B,] | [C,A,]3 [D,A,]2 [D,A,] | %14
 [E,A,E][E,B,E][E,A,E] [E,G,E]2 [E,G,D] | [A,,A,]6 | [D,A,][D,A,][D,A,] [D,A,]2 [D,A,] | %17
 [A,C][E,A,][C,A,] [A,,A,]3 | [B,,A,][B,,A,][B,,A,] [B,,A,]2 [B,,A,] | %19
 [E,G,]2 [E,B,] [E,B,]2 [E,D] | [A,CA][A,C][K:bass][A,C] E2 C, | D,D,D, [D,A,]3 | %22
 [E,A,E][E,B,E][E,A,E] [E,G,E]2 [E,G,D] | [A,,A,]6 |] %24
V:3
 x6 | x6 | x6 | x6 | x6 | x6 | z3 .E,3 | x6 | x6 | x6 | x6 | x6 | x6 | x6 | x6 | x6 | x6 | x6 | %18
 x6 | x6 | z3[K:bass] A,3 | x6 | x6 | x6 |] %24
V:4
 x6 | x6 | x6 | x6 | x6 | x6 | x6 | x6 | x6 | x6 | x6 | x6 | x6 | E2 _G [Fe]2 [Fd] | x6 | x6 | %16
 FFF F2 F | E3 z3 | x6 | z3 .G3 | z AA z2 _G | [A,F][A,F][A,F] [Fd]3 | x6 | x6 |] %24

